; generated by Slic3r 1.36.2-prusa3d-stable-win64 on 2017-08-28 at 17:26:23

; 

; external perimeters extrusion width = 0.60mm
; perimeters extrusion width = 0.43mm
; infill extrusion width = 0.70mm
; solid infill extrusion width = 0.70mm
; top infill extrusion width = 0.43mm
; first layer extrusion width = 0.42mm

M115 U3.0.12 ; tell printer latest fw version
M83  ; extruder relative mode
; Filament gcode

G21 ; set units to millimeters
G90 ; use absolute coordinates
M83 ; use relative distances for extrusion
G1 E-1.40000 F2100.00000
G1 Z0.250 F9000.000
G1 X115.389 Y25.123 F9000.000
G1 E1.40000 F2100.00000
M204 S1000
G1 F1080
G1 X123.194 Y32.929 E0.39834
G1 X123.518 Y33.155 E0.01426
G1 X123.949 Y33.271 E0.01611
G1 X124.394 Y33.232 E0.01611
G1 X124.809 Y33.038 E0.01656
G1 X124.615 Y33.454 E0.01656
G1 X124.577 Y33.899 E0.01611
G1 X124.692 Y34.330 E0.01611
G1 X124.919 Y34.653 E0.01426
G1 X132.718 Y42.453 E0.39804
G1 X132.284 Y42.517 E0.01585
G1 X131.884 Y42.503 E0.01443
G1 X131.489 Y42.422 E0.01457
G1 X131.112 Y42.277 E0.01457
G1 X130.765 Y42.071 E0.01457
G1 X130.438 Y41.795 E0.01544
G1 X126.701 Y38.058 E0.19073
G1 X125.708 Y38.259 E0.03654
G1 X125.042 Y38.310 E0.02409
G1 X124.375 Y38.280 E0.02409
G1 X123.717 Y38.167 E0.02409
G1 X123.138 Y37.993 E0.02182
G1 X122.465 Y37.703 E0.02646
G1 X121.894 Y37.362 E0.02399
G1 X121.368 Y36.952 E0.02409
G1 X120.896 Y36.479 E0.02409
G1 X120.485 Y35.953 E0.02409
G1 X120.143 Y35.380 E0.02409
G1 X119.873 Y34.769 E0.02409
G1 X119.680 Y34.130 E0.02409
G1 X119.568 Y33.472 E0.02409
G1 X119.537 Y32.805 E0.02409
G1 X119.588 Y32.139 E0.02409
G1 X119.790 Y31.147 E0.03654
G1 X116.052 Y27.409 E0.19073
G1 X115.776 Y27.083 E0.01544
G1 X115.570 Y26.735 E0.01457
G1 X115.425 Y26.359 E0.01457
G1 X115.352 Y26.003 E0.01310
G1 X115.331 Y25.556 E0.01616
G1 X115.381 Y25.183 E0.01358
G1 F7200
G1 X118.789 Y28.562 E-1.33000
G1 E-0.07000 F2100.00000
G1 X117.219 Y23.344 F9000.000
G1 E1.40000 F2100.00000
G1 F1080
G1 X117.194 Y23.318 E0.00132
G1 X117.630 Y23.260 E0.01589
G1 X117.993 Y23.272 E0.01310
G1 X118.433 Y23.356 E0.01616
G1 X118.806 Y23.500 E0.01443
G1 X119.153 Y23.706 E0.01457
G1 X119.480 Y23.982 E0.01544
G1 X123.217 Y27.719 E0.19073
G1 X124.210 Y27.518 E0.03654
G1 X124.875 Y27.467 E0.02409
G1 X125.542 Y27.497 E0.02409
G1 X126.200 Y27.610 E0.02409
G1 X126.840 Y27.803 E0.02409
G1 X127.450 Y28.072 E0.02409
G1 X128.023 Y28.415 E0.02409
G1 X128.550 Y28.825 E0.02409
G1 X129.022 Y29.297 E0.02409
G1 X129.432 Y29.824 E0.02409
G1 X129.775 Y30.397 E0.02409
G1 X130.045 Y31.008 E0.02409
G1 X130.237 Y31.647 E0.02409
G1 X130.350 Y32.305 E0.02409
G1 X130.381 Y32.972 E0.02409
G1 X130.329 Y33.638 E0.02409
G1 X130.128 Y34.630 E0.03654
G1 X133.865 Y38.367 E0.19073
G1 X134.142 Y38.694 E0.01544
G1 X134.348 Y39.041 E0.01457
G1 X134.493 Y39.418 E0.01457
G1 X134.565 Y39.774 E0.01310
G1 X134.587 Y40.221 E0.01616
G1 X134.529 Y40.654 E0.01575
G1 X126.724 Y32.848 E0.39834
G1 X126.400 Y32.622 E0.01426
G1 X125.969 Y32.506 E0.01611
G1 X125.524 Y32.545 E0.01611
G1 X125.108 Y32.739 E0.01656
G1 X125.302 Y32.323 E0.01656
G1 X125.341 Y31.878 E0.01611
G1 X125.226 Y31.447 E0.01611
G1 X124.999 Y31.124 E0.01426
G1 X117.262 Y23.386 E0.39486
G1 F7200
G1 X117.194 Y23.318 E-0.02672
G1 F7200
G1 X117.630 Y23.260 E-0.12201
G1 F7200
G1 X117.993 Y23.272 E-0.10059
G1 F7200
G1 X118.433 Y23.356 E-0.12408
G1 F7200
G1 X118.806 Y23.500 E-0.11077
G1 F7200
G1 X119.153 Y23.706 E-0.11187
G1 F7200
G1 X119.480 Y23.982 E-0.11856
G1 F7200
G1 X121.050 Y25.552 E-0.61540
G1 E-0.07000 F2100.00000
G1 X123.337 Y27.321 F9000.000
G1 E1.40000 F2100.00000
G1 F1080
G1 X124.159 Y27.154 E0.03026
G1 X124.870 Y27.100 E0.02572
G1 X125.582 Y27.132 E0.02572
G1 X126.284 Y27.253 E0.02572
G1 X126.967 Y27.458 E0.02572
G1 X127.619 Y27.746 E0.02572
G1 X128.231 Y28.112 E0.02572
G1 X128.793 Y28.550 E0.02572
G1 X129.297 Y29.054 E0.02572
G1 X129.735 Y29.617 E0.02572
G1 X130.101 Y30.228 E0.02572
G1 X130.389 Y30.880 E0.02572
G1 X130.595 Y31.563 E0.02572
G1 X130.715 Y32.266 E0.02572
G1 X130.748 Y32.978 E0.02572
G1 X130.693 Y33.688 E0.02572
G1 X130.526 Y34.510 E0.03026
G1 X134.135 Y38.119 E0.18418
G1 X134.441 Y38.481 E0.01710
G1 X134.678 Y38.881 E0.01678
G1 X134.846 Y39.315 E0.01678
G1 X134.930 Y39.728 E0.01522
G1 X134.954 Y40.237 E0.01837
G1 X134.893 Y40.696 E0.01673
G1 X134.756 Y41.141 E0.01678
G1 X134.669 Y41.312 E0.00693
G1 X126.487 Y33.130 E0.41756
G1 X126.243 Y32.959 E0.01077
G1 X125.937 Y32.877 E0.01145
G1 X125.621 Y32.904 E0.01145
G1 X125.333 Y33.038 E0.01145
G1 X125.109 Y33.263 E0.01145
G1 X124.975 Y33.550 E0.01145
G1 X124.947 Y33.866 E0.01145
G1 X125.029 Y34.172 E0.01145
G1 X125.200 Y34.417 E0.01077
G1 X133.383 Y42.599 E0.41756
G1 X133.211 Y42.685 E0.00693
G1 X132.808 Y42.810 E0.01522
G1 X132.304 Y42.884 E0.01837
G1 X131.841 Y42.868 E0.01673
G1 X131.385 Y42.775 E0.01678
G1 X130.951 Y42.608 E0.01678
G1 X130.551 Y42.371 E0.01678
G1 X130.190 Y42.065 E0.01710
G1 X126.581 Y38.456 E0.18418
G1 X125.759 Y38.623 E0.03026
G1 X125.048 Y38.677 E0.02572
G1 X124.336 Y38.644 E0.02572
G1 X123.633 Y38.524 E0.02572
G1 X123.013 Y38.337 E0.02338
G1 X122.298 Y38.030 E0.02809
G1 X121.687 Y37.665 E0.02568
G1 X121.125 Y37.227 E0.02572
G1 X120.621 Y36.723 E0.02572
G1 X120.182 Y36.160 E0.02572
G1 X119.817 Y35.549 E0.02572
G1 X119.529 Y34.897 E0.02572
G1 X119.323 Y34.214 E0.02572
G1 X119.203 Y33.511 E0.02572
G1 X119.170 Y32.799 E0.02572
G1 X119.225 Y32.089 E0.02572
G1 X119.392 Y31.267 E0.03026
G1 X115.782 Y27.658 E0.18418
G1 X115.477 Y27.296 E0.01710
G1 X115.239 Y26.896 E0.01678
G1 X115.072 Y26.462 E0.01678
G1 X114.988 Y26.049 E0.01522
G1 X114.963 Y25.540 E0.01837
G1 X115.025 Y25.081 E0.01673
G1 X115.162 Y24.636 E0.01678
G1 X115.248 Y24.465 E0.00693
G1 X123.430 Y32.647 E0.41756
G1 X123.675 Y32.818 E0.01077
G1 X123.981 Y32.900 E0.01145
G1 X124.297 Y32.873 E0.01145
G1 X124.585 Y32.739 E0.01145
G1 X124.809 Y32.514 E0.01145
G1 X124.943 Y32.227 E0.01145
G1 X124.971 Y31.911 E0.01145
G1 X124.889 Y31.604 E0.01145
G1 X124.717 Y31.360 E0.01077
G1 X116.535 Y23.178 E0.41756
G1 X116.707 Y23.091 E0.00693
G1 X117.151 Y22.954 E0.01678
G1 X117.612 Y22.893 E0.01678
G1 X118.034 Y22.907 E0.01522
G1 X118.534 Y23.002 E0.01837
G1 X118.966 Y23.169 E0.01673
G1 X119.366 Y23.406 E0.01678
G1 X119.728 Y23.712 E0.01710
G1 X123.295 Y27.279 E0.18202
G1 X123.492 Y27.690 F9000.000
G1 X123.246 Y27.826 F9000.000
G1 F1080
G1 X129.882 Y34.461 E0.36518
G1 X129.976 Y33.999 E0.01837
G1 X123.849 Y27.871 E0.33719
G1 X124.319 Y27.785 E0.01860
G1 X130.062 Y33.528 E0.31608
G1 X130.102 Y33.012 E0.02017
G1 X124.836 Y27.745 E0.28984
G1 X125.413 Y27.766 E0.02250
G1 X130.081 Y32.434 E0.25686
G1 X129.981 Y31.777 E0.02584
G1 X126.070 Y27.866 E0.21524
G1 X126.744 Y28.061 E0.02731
G1 X126.881 Y28.121 E0.00584
G1 X130.000 Y31.240 E0.17163
G1 F7200
G1 X126.881 Y28.121 E-1.22205
G1 F7200
G1 X126.744 Y28.061 E-0.04156
G1 F7200
G1 X126.514 Y27.994 E-0.06639
G1 E-0.07000 F2100.00000
G1 X129.548 Y30.231 F9000.000
G1 E1.40000 F2100.00000
G1 F1080
G1 X127.616 Y28.299 E0.10634
G1 F7200
G1 X129.548 Y30.231 E-0.75717
G1 E-0.64283 F2100.00000
G1 X125.391 Y31.640 F9000.000
G1 E1.40000 F2100.00000
G1 F1080
G1 X126.207 Y32.456 E0.04491
G1 F7200
G1 X125.391 Y31.640 E-0.31977
G1 E-1.08023 F2100.00000
G1 X125.128 Y32.955 F9000.000
G1 E1.40000 F2100.00000
G1 F1080
G1 X125.068 Y32.997 E-0.00004
G1 X125.025 Y33.058 E-0.00004
G1 X124.790 Y32.822 F9000.000
G1 E0.00008 F2100.00000
G1 F1080
G1 X124.850 Y32.780 E-0.00004
G1 X124.893 Y32.719 E-0.00004
G1 F7200
G1 X124.850 Y32.780 E-0.02047
G1 F7200
G1 X124.790 Y32.822 E-0.02047
G1 E-1.35898 F2100.00000
G1 X123.710 Y33.321 F9000.000
G1 E1.40000 F2100.00000
G1 F1080
G1 X124.527 Y34.137 E0.04492
G1 F7200
G1 X123.710 Y33.321 E-0.31986
G1 E-1.08014 F2100.00000
G1 X122.302 Y37.478 F9000.000
G1 E1.40000 F2100.00000
G1 F1080
G1 X120.370 Y35.546 E0.10631
G1 F7200
G1 X122.302 Y37.478 E-0.75697
G1 E-0.64303 F2100.00000
G1 X119.918 Y34.537 F9000.000
G1 E1.40000 F2100.00000
G1 F1080
G1 X123.026 Y37.645 E0.17104
G1 X123.233 Y37.734 E0.00876
G1 X123.848 Y37.911 E0.02490
G1 X119.937 Y34.000 E0.21523
G1 X119.837 Y33.343 E0.02584
G1 X124.504 Y38.010 E0.25686
G1 X125.082 Y38.032 E0.02250
G1 X119.816 Y32.765 E0.28983
G1 X119.855 Y32.249 E0.02017
G1 X125.599 Y37.992 E0.31607
G1 X126.069 Y37.905 E0.01860
G1 X119.942 Y31.778 E0.33719
G1 X120.036 Y31.316 E0.01837
G1 X126.671 Y37.951 E0.36518
G1 F7200
G1 X123.277 Y34.557 E-1.33000
G1 E-0.07000 F2100.00000
G1 X131.612 Y42.335 F9000.000
G1 E1.40000 F2100.00000
G1 F1080
G1 X115.772 Y26.496 E0.87172
G1 X115.690 Y26.281 E0.00893
G1 X115.626 Y25.969 E0.01241
G1 X115.617 Y25.784 E0.00721
G1 X132.239 Y42.405 E0.91473
G1 F7200
G1 X128.844 Y39.011 E-1.33000
G1 E-0.07000 F2100.00000
G1 X134.474 Y40.167 F9000.000
G1 E1.40000 F2100.00000
G1 F1080
G1 X117.850 Y23.542 E0.91488
G1 X117.962 Y23.546 E0.00438
G1 X118.357 Y23.621 E0.01564
G1 X118.566 Y23.702 E0.00870
G1 X134.406 Y39.542 E0.87173
M106 S255
G1 F7200
G1 X131.012 Y36.148 E-1.33000
G1 E-0.07000 F2100.00000
G1 Z0.550 F9000.000
G1 X132.911 Y38.790 F9000.000
G1 E1.40000 F2100.00000
M204 S800
G1 F4800
G1 X130.860 Y40.841 E0.12398
G1 X124.785 Y34.766 E0.36716
G1 X124.532 Y34.404 E0.01885
G1 X124.400 Y33.914 E0.02170
G1 X124.445 Y33.402 E0.02195
G1 X123.933 Y33.447 E0.02195
G1 X123.443 Y33.316 E0.02170
G1 X123.082 Y33.063 E0.01885
G1 X117.006 Y26.987 E0.36716
G1 X119.058 Y24.936 E0.12398
G1 X125.133 Y31.011 E0.36716
G1 X125.386 Y31.372 E0.01885
G1 X125.518 Y31.863 E0.02170
G1 X125.473 Y32.375 E0.02195
G1 X125.984 Y32.330 E0.02195
G1 X126.475 Y32.461 E0.02170
G1 X126.836 Y32.714 E0.01885
G1 X132.869 Y38.747 E0.36460
M204 S1000
G1 X132.274 Y38.790 F9000.000
M204 S800
G1 F4800
G1 X130.860 Y40.204 E0.12788
G1 X125.131 Y34.475 E0.51800
G1 X124.946 Y34.211 E0.02060
G1 X124.856 Y33.874 E0.02231
G1 X124.887 Y33.526 E0.02231
G1 X125.034 Y33.210 E0.02231
G1 X125.281 Y32.964 E0.02231
G1 X125.597 Y32.816 E0.02231
G1 X125.944 Y32.786 E0.02231
G1 X126.281 Y32.876 E0.02231
G1 X126.545 Y33.061 E0.02060
G1 X132.232 Y38.747 E0.51416
M204 S1000
G1 X132.558 Y39.072 F9000.000
G1 F7200
G1 X130.860 Y40.204 E-0.55442
G1 F7200
G1 X128.881 Y38.224 E-0.77558
G1 E-0.07000 F2100.00000
G1 X117.644 Y26.987 F9000.000
G1 E1.40000 F2100.00000
M204 S800
G1 F4800
G1 X119.058 Y25.573 E0.12788
G1 X124.787 Y31.302 E0.51800
G1 X124.971 Y31.566 E0.02060
G1 X125.062 Y31.903 E0.02231
G1 X125.031 Y32.250 E0.02231
G1 X124.884 Y32.567 E0.02231
G1 X124.637 Y32.813 E0.02231
G1 X124.321 Y32.961 E0.02231
G1 X123.973 Y32.991 E0.02231
G1 X123.636 Y32.901 E0.02231
G1 X123.372 Y32.716 E0.02060
G1 X117.686 Y27.030 E0.51416
M204 S1000
G1 X117.360 Y26.705 F9000.000
G1 F7200
G1 X119.058 Y25.573 E-0.55442
G1 F7200
G1 X121.037 Y27.552 E-0.77558
G1 E-0.07000 F2100.00000
G1 X123.160 Y27.909 F9000.000
G1 E1.40000 F2100.00000
M204 S800
G1 F4800
G1 X124.234 Y27.691 E0.04682
G1 X124.878 Y27.641 E0.02761
G1 X125.524 Y27.671 E0.02761
G1 X126.160 Y27.780 E0.02761
G1 X126.779 Y27.966 E0.02761
G1 X127.370 Y28.227 E0.02761
G1 X127.925 Y28.559 E0.02761
G1 X128.434 Y28.956 E0.02761
G1 X128.891 Y29.413 E0.02761
G1 X129.288 Y29.923 E0.02761
G1 X129.620 Y30.477 E0.02761
G1 X129.881 Y31.068 E0.02761
G1 X130.067 Y31.687 E0.02761
G1 X130.176 Y32.324 E0.02761
G1 X130.206 Y32.969 E0.02761
G1 X130.157 Y33.613 E0.02761
G1 X129.939 Y34.687 E0.04682
G1 X133.737 Y38.486 E0.22956
G1 X133.999 Y38.796 E0.01735
G1 X134.190 Y39.118 E0.01601
G1 X134.325 Y39.467 E0.01601
G1 X134.400 Y39.834 E0.01601
G1 X134.416 Y40.294 E0.01965
G1 X133.229 Y39.107 E0.07170
G1 X131.178 Y41.159 E0.12398
G1 X132.364 Y42.345 E0.07170
G1 X131.905 Y42.329 E0.01965
G1 X131.538 Y42.255 E0.01601
G1 X131.188 Y42.120 E0.01601
G1 X130.866 Y41.929 E0.01601
G1 X130.556 Y41.667 E0.01735
G1 X126.758 Y37.868 E0.22956
G1 X125.684 Y38.086 E0.04682
G1 X125.040 Y38.136 E0.02761
G1 X124.394 Y38.106 E0.02761
G1 X123.757 Y37.997 E0.02761
G1 X123.139 Y37.811 E0.02761
G1 X122.548 Y37.550 E0.02761
G1 X121.993 Y37.218 E0.02761
G1 X121.484 Y36.821 E0.02761
G1 X121.027 Y36.364 E0.02761
G1 X120.629 Y35.854 E0.02761
G1 X120.298 Y35.300 E0.02761
G1 X120.037 Y34.709 E0.02761
G1 X119.850 Y34.090 E0.02761
G1 X119.741 Y33.453 E0.02761
G1 X119.712 Y32.808 E0.02761
G1 X119.761 Y32.163 E0.02761
G1 X119.979 Y31.090 E0.04682
G1 X116.181 Y27.291 E0.22956
G1 X115.919 Y26.981 E0.01735
G1 X115.728 Y26.659 E0.01601
G1 X115.593 Y26.310 E0.01601
G1 X115.518 Y25.943 E0.01601
G1 X115.502 Y25.483 E0.01965
G1 X116.688 Y26.670 E0.07170
G1 X118.740 Y24.618 E0.12398
G1 X117.554 Y23.432 E0.07170
G1 X118.013 Y23.447 E0.01965
G1 X118.380 Y23.522 E0.01601
G1 X118.730 Y23.657 E0.01601
G1 X119.052 Y23.848 E0.01601
G1 X119.362 Y24.110 E0.01735
G1 X123.118 Y27.866 E0.22699
M204 S1000
G1 X123.308 Y27.419 F9000.000
M204 S800
G1 F4800
G1 X124.171 Y27.244 E0.05635
G1 X124.871 Y27.190 E0.04487
G1 X125.572 Y27.222 E0.04487
G1 X126.264 Y27.340 E0.04487
G1 X126.936 Y27.543 E0.04487
G1 X127.578 Y27.826 E0.04487
G1 X128.180 Y28.186 E0.04487
G1 X128.733 Y28.618 E0.04487
G1 X129.229 Y29.114 E0.04487
G1 X129.661 Y29.668 E0.04487
G1 X130.021 Y30.270 E0.04487
G1 X130.305 Y30.912 E0.04487
G1 X130.507 Y31.584 E0.04487
G1 X130.625 Y32.275 E0.04487
G1 X130.658 Y32.976 E0.04487
G1 X130.604 Y33.676 E0.04487
G1 X130.428 Y34.540 E0.05635
G1 X134.069 Y38.180 E0.32919
G1 X134.368 Y38.533 E0.02957
G1 X134.597 Y38.920 E0.02877
G1 X134.759 Y39.340 E0.02877
G1 X134.849 Y39.781 E0.02877
G1 X134.864 Y40.231 E0.02877
G1 X134.805 Y40.677 E0.02877
G1 X134.653 Y41.168 E0.03289
G1 X133.229 Y39.745 E0.12874
G1 X131.815 Y41.159 E0.12788
G1 X133.239 Y42.583 E0.12874
G1 X132.747 Y42.734 E0.03289
G1 X132.301 Y42.794 E0.02877
G1 X131.852 Y42.778 E0.02877
G1 X131.411 Y42.689 E0.02877
G1 X130.991 Y42.527 E0.02877
G1 X130.604 Y42.297 E0.02877
G1 X130.251 Y41.999 E0.02957
G1 X126.610 Y38.358 E0.32919
G1 X125.746 Y38.533 E0.05635
G1 X125.047 Y38.587 E0.04487
G1 X124.346 Y38.555 E0.04487
G1 X123.654 Y38.437 E0.04487
G1 X122.982 Y38.234 E0.04487
G1 X122.340 Y37.951 E0.04487
G1 X121.738 Y37.590 E0.04487
G1 X121.185 Y37.159 E0.04487
G1 X120.688 Y36.663 E0.04487
G1 X120.257 Y36.109 E0.04487
G1 X119.897 Y35.507 E0.04487
G1 X119.613 Y34.865 E0.04487
G1 X119.411 Y34.193 E0.04487
G1 X119.293 Y33.502 E0.04487
G1 X119.260 Y32.801 E0.04487
G1 X119.314 Y32.101 E0.04487
G1 X119.489 Y31.237 E0.05635
G1 X115.849 Y27.597 E0.32919
G1 X115.550 Y27.244 E0.02957
G1 X115.321 Y26.856 E0.02877
G1 X115.159 Y26.437 E0.02877
G1 X115.069 Y25.996 E0.02877
G1 X115.053 Y25.546 E0.02877
G1 X115.113 Y25.100 E0.02877
G1 X115.265 Y24.609 E0.03289
G1 X116.688 Y26.032 E0.12874
G1 X118.103 Y24.618 E0.12788
G1 X116.679 Y23.194 E0.12874
G1 X117.170 Y23.042 E0.03289
G1 X117.616 Y22.983 E0.02877
G1 X118.066 Y22.998 E0.02877
G1 X118.507 Y23.088 E0.02877
G1 X118.927 Y23.250 E0.02877
G1 X119.314 Y23.480 E0.02877
G1 X119.667 Y23.778 E0.02957
G1 X123.265 Y27.377 E0.32535
M204 S1000
G1 X123.463 Y27.788 F9000.000
G1 X123.633 Y27.904 F9000.000
M204 S2000
G1 F6000
G1 X123.095 Y28.442 E0.05831
G1 X123.546 Y28.893 E0.04885
G1 X124.383 Y28.056 E0.09070
G1 X124.884 Y28.017 E0.03854
G1 X125.303 Y28.037 E0.03218
G1 X123.996 Y29.344 E0.14164
G1 X124.447 Y29.794 E0.04885
G1 X126.090 Y28.151 E0.17810
G1 X126.649 Y28.319 E0.04467
G1 X126.770 Y28.373 E0.01018
G1 X124.898 Y30.245 E0.20292
G1 X125.349 Y30.696 E0.04885
G1 X127.376 Y28.668 E0.21974
G1 X127.712 Y28.869 E0.03001
G1 X127.917 Y29.029 E0.01990
G1 X125.732 Y31.214 E0.23678
G1 X125.897 Y31.830 E0.04889
G1 X125.886 Y31.962 E0.01014
G1 X128.397 Y29.450 E0.27219
G1 X128.609 Y29.662 E0.02299
G1 X128.818 Y29.930 E0.02606
G1 X126.634 Y32.115 E0.23679
G1 X127.078 Y32.426 E0.04157
G1 X127.152 Y32.499 E0.00792
G1 X129.179 Y30.471 E0.21974
G1 X129.286 Y30.650 E0.01597
G1 X129.475 Y31.077 E0.03578
G1 X127.602 Y32.949 E0.20292
G1 X128.053 Y33.400 E0.04885
G1 X129.696 Y31.757 E0.17811
G1 X129.802 Y32.364 E0.04726
G1 X129.811 Y32.544 E0.01378
G1 X128.504 Y33.851 E0.14165
G1 X128.955 Y34.302 E0.04885
G1 X129.791 Y33.465 E0.09071
G1 X129.577 Y34.580 E0.08706
G1 X129.203 Y34.955 E0.04056
M204 S1000
G1 X129.688 Y35.002 F9000.000
G1 F4800
G1 X133.351 Y38.667 E0.22612
G1 F4800
