; generated by Slic3r 1.36.2-prusa3d on 2017-09-02 at 13:30:15

; 

; external perimeters extrusion width = 0.60mm
; perimeters extrusion width = 0.43mm
; infill extrusion width = 0.70mm
; solid infill extrusion width = 0.70mm
; top infill extrusion width = 0.43mm
; first layer extrusion width = 0.42mm

M115 U3.0.12 ; tell printer latest fw version
M83  ; extruder relative mode

G21 ; set units to millimeters
G90 ; use absolute coordinates
M83 ; use relative distances for extrusion

G1 E1.400 F2100.00000 ;DESRETRACT AQUI

G1 Z0.200 F6000.000
G1 X45.126 Y19.039 F6000.000

M204 S1000
G1 F1080
G1 X45.294 Y19.173 E0.00646
G1 X52.896 Y26.776 E0.32340
G1 X53.096 Y26.935 E0.00770
G1 X53.356 Y27.061 E0.00869
G1 X53.638 Y27.125 E0.00869
G1 X53.927 Y27.125 E0.00869
G1 X54.209 Y27.061 E0.00869
G1 X54.282 Y27.026 E0.00244
G1 X54.395 Y27.139 E0.00483
G1 X54.360 Y27.212 E0.00244
G1 X54.296 Y27.494 E0.00869
G1 X54.296 Y27.783 E0.00869
G1 X54.360 Y28.065 E0.00869
G1 X54.486 Y28.325 E0.00869
G1 X54.645 Y28.525 E0.00770
G1 X62.248 Y36.127 E0.32340
G1 X62.382 Y36.295 E0.00646
G1 X62.188 Y36.343 E0.00601
G1 X61.961 Y36.361 E0.00685
G1 X61.715 Y36.356 E0.00738
G1 X61.232 Y36.271 E0.01475
G1 X60.777 Y36.090 E0.01475
G1 X60.367 Y35.820 E0.01475
G1 X60.174 Y35.646 E0.00783
G1 X56.420 Y31.892 E0.15969
G1 X55.672 Y32.061 E0.02305
G1 X55.257 Y32.122 E0.01263
G1 X54.838 Y32.151 E0.01263
G1 X54.418 Y32.147 E0.01263
G1 X54.000 Y32.110 E0.01263
G1 X53.586 Y32.041 E0.01263
G1 X53.179 Y31.940 E0.01263
G1 X52.810 Y31.818 E0.01167
G1 X52.392 Y31.645 E0.01362
G1 X52.020 Y31.454 E0.01258
G1 X51.663 Y31.233 E0.01263
G1 X51.324 Y30.986 E0.01263
G1 X51.005 Y30.713 E0.01263
G1 X50.708 Y30.416 E0.01263
G1 X50.435 Y30.097 E0.01263
G1 X50.188 Y29.758 E0.01263
G1 X49.984 Y29.428 E0.01167
G1 X49.775 Y29.026 E0.01362
G1 X49.613 Y28.641 E0.01258
G1 X49.481 Y28.242 E0.01263
G1 X49.380 Y27.835 E0.01263
G1 X49.311 Y27.421 E0.01263
G1 X49.274 Y27.003 E0.01263
G1 X49.270 Y26.583 E0.01263
G1 X49.299 Y26.164 E0.01263
G1 X49.360 Y25.749 E0.01263
G1 X49.529 Y25.001 E0.02305
G1 X45.775 Y21.247 E0.15969
G1 X45.601 Y21.054 E0.00783
G1 X45.331 Y20.644 E0.01475
G1 X45.150 Y20.189 E0.01475
G1 X45.065 Y19.706 E0.01475
G1 X45.060 Y19.460 E0.00738
G1 X45.078 Y19.233 E0.00685
G1 X45.111 Y19.098 E0.00420
G1 F4800
G1 X45.294 Y19.173 E-0.08197
G1 F4800
G1 X47.417 Y21.297 E-1.24803
G1 E-0.07000 F2100.00000
G1 X52.942 Y21.589 F6000.000
G1 E1.40000 F2100.00000
G1 F1080
G1 X53.689 Y21.419 E0.02305
G1 X54.104 Y21.359 E0.01263
G1 X54.523 Y21.330 E0.01263
G1 X54.943 Y21.334 E0.01263
G1 X55.361 Y21.371 E0.01263
G1 X55.775 Y21.440 E0.01263
G1 X56.183 Y21.540 E0.01263
G1 X56.551 Y21.663 E0.01167
G1 X56.969 Y21.836 E0.01362
G1 X57.341 Y22.027 E0.01258
G1 X57.699 Y22.247 E0.01263
G1 X58.038 Y22.495 E0.01263
G1 X58.357 Y22.768 E0.01263
G1 X58.653 Y23.064 E0.01263
G1 X58.926 Y23.383 E0.01263
G1 X59.174 Y23.722 E0.01263
G1 X59.394 Y24.080 E0.01263
G1 X59.586 Y24.453 E0.01263
G1 X59.748 Y24.840 E0.01263
G1 X59.881 Y25.238 E0.01263
G1 X59.981 Y25.646 E0.01263
G1 X60.050 Y26.060 E0.01263
G1 X60.087 Y26.478 E0.01263
G1 X60.091 Y26.898 E0.01263
G1 X60.062 Y27.317 E0.01263
G1 X60.002 Y27.732 E0.01263
G1 X59.832 Y28.479 E0.02306
G1 X63.586 Y32.233 E0.15969
G1 X63.761 Y32.427 E0.00783
G1 X64.029 Y32.835 E0.01469
G1 X64.211 Y33.292 E0.01481
G1 X64.296 Y33.775 E0.01475
G1 X64.302 Y34.020 E0.00738
G1 X64.283 Y34.247 E0.00685
G1 X64.235 Y34.441 E0.00601
G1 X64.068 Y34.307 E0.00646
G1 X56.465 Y26.705 E0.32340
G1 X56.265 Y26.545 E0.00770
G1 X56.005 Y26.420 E0.00869
G1 X55.723 Y26.356 E0.00869
G1 X55.434 Y26.356 E0.00869
G1 X55.152 Y26.420 E0.00869
G1 X55.079 Y26.455 E0.00244
G1 X54.966 Y26.342 E0.00483
G1 X55.001 Y26.269 E0.00244
G1 X55.065 Y25.987 E0.00869
G1 X55.065 Y25.698 E0.00869
G1 X55.001 Y25.416 E0.00869
G1 X54.876 Y25.156 E0.00869
G1 X54.716 Y24.956 E0.00770
G1 X47.114 Y17.353 E0.32340
G1 X46.980 Y17.186 E0.00646
G1 X47.174 Y17.138 E0.00601
G1 X47.401 Y17.119 E0.00685
G1 X47.892 Y17.156 E0.01481
G1 X48.129 Y17.210 E0.00732
G1 X48.585 Y17.391 E0.01475
G1 X48.996 Y17.662 E0.01481
G1 X49.188 Y17.835 E0.00777
G1 X52.899 Y21.547 E0.15789
G1 X53.061 Y21.175 F6000.000
G1 F1080
G1 X53.620 Y21.049 E0.01724
G1 X54.064 Y20.983 E0.01351
G1 X54.512 Y20.953 E0.01351
G1 X54.961 Y20.957 E0.01351
G1 X55.409 Y20.996 E0.01351
G1 X55.851 Y21.070 E0.01351
G1 X56.287 Y21.178 E0.01351
G1 X56.682 Y21.309 E0.01252
G1 X57.128 Y21.493 E0.01450
G1 X57.527 Y21.698 E0.01349
G1 X57.909 Y21.934 E0.01351
G1 X58.272 Y22.199 E0.01351
G1 X58.613 Y22.491 E0.01351
G1 X58.930 Y22.808 E0.01351
G1 X59.222 Y23.149 E0.01351
G1 X59.487 Y23.512 E0.01351
G1 X59.723 Y23.894 E0.01351
G1 X59.928 Y24.293 E0.01351
G1 X60.102 Y24.707 E0.01351
G1 X60.243 Y25.134 E0.01351
G1 X60.351 Y25.570 E0.01351
G1 X60.425 Y26.012 E0.01351
G1 X60.464 Y26.460 E0.01351
G1 X60.468 Y26.909 E0.01351
G1 X60.438 Y27.357 E0.01351
G1 X60.372 Y27.801 E0.01351
G1 X60.246 Y28.360 E0.01724
G1 X63.859 Y31.974 E0.15372
G1 X64.053 Y32.188 E0.00870
G1 X64.221 Y32.417 E0.00854
G1 X64.365 Y32.661 E0.00852
G1 X64.490 Y32.940 E0.00919
G1 X64.574 Y33.189 E0.00791
G1 X64.638 Y33.466 E0.00854
G1 X64.673 Y33.748 E0.00854
G1 X64.679 Y34.031 E0.00854
G1 X64.657 Y34.308 E0.00835
G1 X64.629 Y34.420 E0.00346
G1 X64.513 Y34.599 E0.00644
G1 X64.328 Y34.713 E0.00653
G1 X64.113 Y34.736 E0.00649
G1 X63.910 Y34.664 E0.00649
G1 X63.816 Y34.589 E0.00362
G1 X56.214 Y26.987 E0.32339
G1 X56.063 Y26.867 E0.00578
G1 X55.880 Y26.778 E0.00614
G1 X55.681 Y26.733 E0.00614
G1 X55.477 Y26.733 E0.00614
G1 X55.278 Y26.778 E0.00614
G1 X55.094 Y26.867 E0.00614
G1 X54.944 Y26.986 E0.00575
G1 X54.808 Y27.152 E0.00647
G1 X54.718 Y27.337 E0.00619
G1 X54.673 Y27.536 E0.00614
G1 X54.673 Y27.740 E0.00614
G1 X54.718 Y27.939 E0.00614
G1 X54.807 Y28.123 E0.00614
G1 X54.927 Y28.274 E0.00578
G1 X62.529 Y35.876 E0.32339
G1 X62.604 Y35.970 E0.00362
G1 X62.651 Y36.067 E0.00326
G1 X62.677 Y36.282 E0.00649
G1 X62.607 Y36.486 E0.00649
G1 X62.457 Y36.640 E0.00649
G1 X62.248 Y36.716 E0.00668
G1 X61.972 Y36.739 E0.00835
G1 X61.688 Y36.733 E0.00854
G1 X61.406 Y36.698 E0.00854
G1 X61.129 Y36.634 E0.00854
G1 X60.860 Y36.543 E0.00854
G1 X60.602 Y36.425 E0.00854
G1 X60.357 Y36.281 E0.00854
G1 X60.128 Y36.113 E0.00854
G1 X59.914 Y35.919 E0.00870
G1 X56.300 Y32.306 E0.15372
G1 X55.741 Y32.432 E0.01724
G1 X55.297 Y32.497 E0.01351
G1 X54.849 Y32.528 E0.01351
G1 X54.400 Y32.523 E0.01351
G1 X53.953 Y32.484 E0.01351
G1 X53.510 Y32.411 E0.01351
G1 X53.074 Y32.303 E0.01351
G1 X52.679 Y32.172 E0.01252
G1 X52.233 Y31.988 E0.01450
G1 X51.834 Y31.782 E0.01349
G1 X51.452 Y31.547 E0.01351
G1 X51.090 Y31.282 E0.01351
G1 X50.748 Y30.990 E0.01351
G1 X50.431 Y30.673 E0.01351
G1 X50.139 Y30.331 E0.01351
G1 X49.874 Y29.969 E0.01351
G1 X49.656 Y29.614 E0.01252
G1 X49.433 Y29.187 E0.01450
G1 X49.259 Y28.773 E0.01349
G1 X49.118 Y28.347 E0.01351
G1 X49.010 Y27.911 E0.01351
G1 X48.937 Y27.468 E0.01351
G1 X48.898 Y27.021 E0.01351
G1 X48.893 Y26.572 E0.01351
G1 X48.924 Y26.124 E0.01351
G1 X48.989 Y25.680 E0.01351
G1 X49.115 Y25.121 E0.01724
G1 X45.502 Y21.507 E0.15372
G1 X45.308 Y21.293 E0.00870
G1 X45.140 Y21.064 E0.00854
G1 X44.996 Y20.819 E0.00854
G1 X44.878 Y20.561 E0.00854
G1 X44.787 Y20.292 E0.00854
G1 X44.723 Y20.015 E0.00854
G1 X44.688 Y19.733 E0.00854
G1 X44.682 Y19.449 E0.00854
G1 X44.705 Y19.173 E0.00835
G1 X44.781 Y18.964 E0.00668
G1 X44.935 Y18.814 E0.00649
G1 X45.033 Y18.767 E0.00326
G1 X45.248 Y18.745 E0.00649
G1 X45.354 Y18.770 E0.00326
G1 X45.451 Y18.817 E0.00326
G1 X45.545 Y18.892 E0.00362
G1 X53.147 Y26.494 E0.32339
G1 X53.298 Y26.614 E0.00578
G1 X53.482 Y26.703 E0.00614
G1 X53.681 Y26.748 E0.00614
G1 X53.885 Y26.748 E0.00614
G1 X54.084 Y26.703 E0.00614
G1 X54.267 Y26.614 E0.00614
G1 X54.427 Y26.487 E0.00614
G1 X54.554 Y26.327 E0.00614
G1 X54.643 Y26.143 E0.00614
G1 X54.688 Y25.944 E0.00614
G1 X54.688 Y25.740 E0.00614
G1 X54.643 Y25.541 E0.00614
G1 X54.554 Y25.358 E0.00614
G1 X54.434 Y25.207 E0.00578
G1 X46.832 Y17.605 E0.32339
G1 X46.757 Y17.511 E0.00362
G1 X46.685 Y17.308 E0.00649
G1 X46.684 Y17.199 E0.00326
G1 X46.754 Y16.995 E0.00649
G1 X46.904 Y16.840 E0.00649
G1 X47.001 Y16.792 E0.00326
G1 X47.113 Y16.764 E0.00346
G1 X47.390 Y16.742 E0.00835
G1 X47.652 Y16.748 E0.00791
G1 X47.956 Y16.783 E0.00919
G1 X48.232 Y16.847 E0.00852
G1 X48.501 Y16.938 E0.00854
G1 X48.759 Y17.056 E0.00854
G1 X48.986 Y17.189 E0.00791
G1 X49.233 Y17.368 E0.00919
G1 X49.447 Y17.562 E0.00868
G1 X53.019 Y21.133 E0.15192
G1 X53.221 Y21.542 F6000.000
G1 X52.960 Y21.701 F6000.000
G1 F1080
G1 X59.578 Y28.319 E0.29595
G1 X59.682 Y27.863 E0.01479
G1 X53.558 Y21.739 E0.27384
G1 X54.033 Y21.655 E0.01526
G1 X59.766 Y27.388 E0.25636
G1 X59.808 Y26.870 E0.01643
G1 X54.551 Y21.613 E0.23506
G1 X55.132 Y21.635 E0.01838
G1 X59.786 Y26.289 E0.20813
G1 X59.686 Y25.629 E0.02111
G1 X55.792 Y21.735 E0.17412
G1 X56.104 Y21.812 E0.01016
G1 X56.609 Y21.993 E0.01695
G1 X59.715 Y25.099 E0.13891
G1 F4800
G1 X57.452 Y22.836 E-1.33000
G1 E-0.07000 F2100.00000
G1 X59.270 Y24.094 F6000.000
G1 E1.40000 F2100.00000
G1 F1080
G1 X57.327 Y22.151 E0.08691
G1 F4800
G1 X59.270 Y24.094 E-1.14231
G1 E-0.25769 F2100.00000
G1 X55.850 Y26.269 F6000.000
G1 E1.40000 F2100.00000
G1 F1080
G1 X55.348 Y25.767 E0.02243
G1 X55.348 Y25.666 E0.00319
G1 X55.270 Y25.322 E0.01115
G1 X55.116 Y25.004 E0.01115
G1 X55.005 Y24.865 E0.00564
G1 X64.186 Y34.046 E0.41054
G1 X64.118 Y33.419 F6000.000
G1 F1080
G1 X48.005 Y17.305 E0.72055
G1 F4800
G1 X50.268 Y19.568 E-1.33000
G1 E-0.07000 F2100.00000
G1 X45.243 Y20.062 F6000.000
G1 E1.40000 F2100.00000
G1 F1080
G1 X61.359 Y36.178 E0.72067
G1 X61.986 Y36.246 F6000.000
G1 F1080
G1 X52.804 Y27.065 E0.41057
G1 X52.944 Y27.176 E0.00566
G1 X53.262 Y27.329 E0.01115
G1 X53.606 Y27.408 E0.01115
G1 X53.707 Y27.408 E0.00319
G1 X54.209 Y27.910 E0.02244
G1 F4800
G1 X53.707 Y27.408 E-0.29491
G1 F4800
G1 X53.606 Y27.408 E-0.04194
G1 F4800
G1 X53.262 Y27.329 E-0.14662
G1 F4800
G1 X52.944 Y27.176 E-0.14662
G1 F4800
G1 X52.804 Y27.065 E-0.07445
G1 F4800
G1 X53.868 Y28.129 E-0.62546
G1 E-0.07000 F2100.00000
G1 X52.034 Y31.330 F6000.000
G1 E1.40000 F2100.00000
G1 F1080
G1 X50.091 Y29.387 E0.08688
G1 F4800
G1 X52.034 Y31.330 E-1.14198
G1 E-0.25802 F2100.00000
G1 X49.646 Y28.382 F6000.000
G1 E1.40000 F2100.00000
G1 F1080
G1 X52.752 Y31.488 E0.13889
G1 X53.257 Y31.668 E0.01696
G1 X53.569 Y31.746 E0.01016
G1 X49.675 Y27.852 E0.17411
G1 X49.575 Y27.192 E0.02111
G1 X54.229 Y31.846 E0.20812
G1 X54.810 Y31.868 E0.01838
G1 X49.554 Y26.611 E0.23506
G1 X49.595 Y26.093 E0.01643
G1 X55.328 Y31.826 E0.25636
G1 X55.803 Y31.742 E0.01526
G1 X49.679 Y25.618 E0.27384
G1 X49.783 Y25.162 E0.01479
G1 X56.401 Y31.780 E0.29595
M106 S255
G1 F4800
G1 X54.138 Y29.517 E-1.33000
G1 E-0.07000 F2100.00000
G1 Z0.500 F6000.000
G1 X62.363 Y33.008 F6000.000
G1 E1.40000 F2100.00000
M204 S800
G1 F4800
G1 X60.949 Y34.423 E0.12788
G1 X54.860 Y28.334 E0.55057
G1 X54.730 Y28.171 E0.01326
G1 X54.633 Y27.969 E0.01434
G1 X54.583 Y27.751 E0.01434
G1 X54.583 Y27.526 E0.01434
G1 X54.633 Y27.308 E0.01434
G1 X54.730 Y27.105 E0.01434
G1 X54.870 Y26.930 E0.01434
G1 X55.046 Y26.790 E0.01434
G1 X55.248 Y26.693 E0.01434
G1 X55.466 Y26.643 E0.01434
G1 X55.691 Y26.643 E0.01434
G1 X55.910 Y26.693 E0.01434
G1 X56.112 Y26.790 E0.01434
G1 X56.274 Y26.919 E0.01326
G1 X62.320 Y32.966 E0.54674
M204 S1000
G1 X62.646 Y33.291 F6000.000
G1 F4800
G1 X60.949 Y34.423 E-0.83162
G1 F4800
G1 X60.101 Y33.575 E-0.49838
G1 E-0.07000 F2100.00000
G1 X48.413 Y19.058 F6000.000
G1 E1.40000 F2100.00000
M204 S800
G1 F4800
G1 X54.502 Y25.147 E0.55057
G1 X54.631 Y25.309 E0.01326
G1 X54.728 Y25.511 E0.01434
G1 X54.778 Y25.730 E0.01434
G1 X54.778 Y25.955 E0.01434
G1 X54.728 Y26.173 E0.01434
G1 X54.631 Y26.375 E0.01434
G1 X54.491 Y26.551 E0.01434
G1 X54.316 Y26.691 E0.01434
G1 X54.114 Y26.788 E0.01434
G1 X53.895 Y26.838 E0.01434
G1 X53.670 Y26.838 E0.01434
G1 X53.452 Y26.788 E0.01434
G1 X53.250 Y26.691 E0.01434
G1 X53.087 Y26.561 E0.01326
G1 X46.998 Y20.472 E0.55057
G1 X48.370 Y19.101 E0.12404
M204 S1000
G1 X48.545 Y18.681 F6000.000
G1 F4800
G1 X50.649 Y21.348 E-1.33000
G1 E-0.07000 F2100.00000
G1 X56.471 Y31.712 F6000.000
G1 E1.40000 F2100.00000
M204 S800
G1 F4800
G1 X55.642 Y31.900 E0.03634
G1 X55.239 Y31.959 E0.01740
G1 X54.833 Y31.987 E0.01740
G1 X54.426 Y31.983 E0.01740
G1 X54.021 Y31.948 E0.01740
G1 X53.619 Y31.881 E0.01740
G1 X53.224 Y31.783 E0.01740
G1 X52.838 Y31.655 E0.01740
G1 X52.462 Y31.497 E0.01740
G1 X52.100 Y31.311 E0.01740
G1 X51.754 Y31.098 E0.01740
G1 X51.425 Y30.858 E0.01740
G1 X51.116 Y30.593 E0.01740
G1 X50.906 Y30.383 E0.01267
G1 X50.560 Y29.991 E0.02235
G1 X50.323 Y29.667 E0.01715
G1 X50.110 Y29.321 E0.01740
G1 X49.924 Y28.959 E0.01740
G1 X49.766 Y28.583 E0.01740
G1 X49.638 Y28.197 E0.01740
G1 X49.540 Y27.802 E0.01740
G1 X49.473 Y27.400 E0.01740
G1 X49.438 Y26.995 E0.01740
G1 X49.434 Y26.588 E0.01740
G1 X49.462 Y26.182 E0.01740
G1 X49.521 Y25.779 E0.01740
G1 X49.709 Y24.950 E0.03634
G1 X45.728 Y20.951 E0.24114
G1 X45.476 Y20.569 E0.01953
G1 X45.306 Y20.137 E0.01986
G1 X45.228 Y19.694 E0.01921
G1 X45.221 Y19.332 E0.01548
G1 X52.787 Y26.898 E0.45727
G1 X53.008 Y27.075 E0.01211
G1 X53.302 Y27.216 E0.01393
G1 X53.620 Y27.289 E0.01393
G1 X53.946 Y27.289 E0.01393
G1 X54.188 Y27.233 E0.01061
G1 X54.132 Y27.475 E0.01061
G1 X54.132 Y27.801 E0.01393
G1 X54.205 Y28.119 E0.01393
G1 X54.346 Y28.413 E0.01393
G1 X54.523 Y28.634 E0.01211
G1 X62.089 Y36.201 E0.45727
G1 X61.727 Y36.193 E0.01548
G1 X61.277 Y36.113 E0.01953
G1 X60.852 Y35.945 E0.01953
G1 X60.470 Y35.693 E0.01953
G1 X56.514 Y31.755 E0.23858
M204 S1000
G1 F4800
G1 X55.642 Y31.900 E-0.36733
G1 F4800
G1 X55.239 Y31.959 E-0.16918
G1 F4800
G1 X54.833 Y31.987 E-0.16918
G1 F4800
G1 X54.426 Y31.983 E-0.16918
G1 F4800
G1 X54.021 Y31.948 E-0.16918
G1 F4800
G1 X53.619 Y31.881 E-0.16918
G1 F4800
G1 X53.346 Y31.813 E-0.11677
G1 E-0.07000 F2100.00000
G1 X52.890 Y21.768 F6000.000
G1 E1.40000 F2100.00000
M204 S800
G1 F4800
G1 X53.719 Y21.580 E0.03634
G1 X54.122 Y21.521 E0.01740
G1 X54.528 Y21.494 E0.01740
G1 X54.935 Y21.498 E0.01740
G1 X55.340 Y21.533 E0.01740
G1 X55.742 Y21.600 E0.01740
G1 X56.137 Y21.698 E0.01740
G1 X56.904 Y21.986 E0.03501
G1 X57.261 Y22.170 E0.01715
G1 X57.607 Y22.383 E0.01740
G1 X57.936 Y22.623 E0.01740
G1 X58.245 Y22.888 E0.01740
G1 X58.533 Y23.176 E0.01740
G1 X58.798 Y23.485 E0.01740
G1 X59.038 Y23.814 E0.01740
G1 X59.251 Y24.160 E0.01740
G1 X59.438 Y24.522 E0.01740
G1 X59.595 Y24.897 E0.01740
G1 X59.723 Y25.284 E0.01740
G1 X59.821 Y25.679 E0.01740
G1 X59.888 Y26.081 E0.01740
G1 X59.923 Y26.486 E0.01740
G1 X59.927 Y26.893 E0.01739
G1 X59.900 Y27.299 E0.01740
G1 X59.841 Y27.702 E0.01740
G1 X59.653 Y28.531 E0.03634
G1 X63.634 Y32.530 E0.24114
G1 X63.885 Y32.912 E0.01953
G1 X64.054 Y33.337 E0.01953
G1 X64.133 Y33.787 E0.01953
G1 X64.141 Y34.149 E0.01548
G1 X56.575 Y26.583 E0.45727
G1 X56.353 Y26.406 E0.01211
G1 X56.059 Y26.265 E0.01393
G1 X55.742 Y26.192 E0.01393
G1 X55.416 Y26.192 E0.01393
G1 X55.174 Y26.247 E0.01061
G1 X55.229 Y26.005 E0.01061
G1 X55.229 Y25.679 E0.01393
G1 X55.156 Y25.362 E0.01393
G1 X55.015 Y25.068 E0.01393
G1 X54.838 Y24.846 E0.01211
G1 X47.272 Y17.280 E0.45727
G1 X47.869 Y17.318 E0.02555
G1 X48.084 Y17.367 E0.00945
G1 X48.509 Y17.536 E0.01953
G1 X48.891 Y17.787 E0.01953
G1 X52.847 Y21.726 E0.23858
M204 S1000
G1 X53.033 Y21.274 F6000.000
M204 S800
G1 F4800
G1 X53.636 Y21.137 E0.03959
G1 X54.074 Y21.073 E0.02826
G1 X54.515 Y21.043 E0.02826
G1 X54.957 Y21.047 E0.02826
G1 X55.397 Y21.086 E0.02826
G1 X55.833 Y21.158 E0.02826
G1 X56.262 Y21.264 E0.02826
G1 X56.574 Y21.368 E0.02097
G1 X57.092 Y21.576 E0.03568
G1 X57.483 Y21.777 E0.02811
G1 X57.859 Y22.009 E0.02826
G1 X58.216 Y22.269 E0.02826
G1 X58.552 Y22.557 E0.02826
G1 X58.864 Y22.869 E0.02826
G1 X59.152 Y23.205 E0.02826
G1 X59.412 Y23.562 E0.02826
G1 X59.644 Y23.938 E0.02826
G1 X59.846 Y24.332 E0.02826
G1 X60.018 Y24.739 E0.02826
G1 X60.157 Y25.159 E0.02826
G1 X60.263 Y25.588 E0.02826
G1 X60.335 Y26.024 E0.02826
G1 X60.374 Y26.464 E0.02826
G1 X60.378 Y26.906 E0.02826
G1 X60.348 Y27.347 E0.02826
G1 X60.284 Y27.785 E0.02826
