; generated by Slic3r 1.36.2-prusa3d-stable-win64 on 2017-08-29 at 15:47:29

; 

; external perimeters extrusion width = 0.60mm
; perimeters extrusion width = 0.43mm
; infill extrusion width = 0.70mm
; solid infill extrusion width = 0.70mm
; top infill extrusion width = 0.43mm
; first layer extrusion width = 0.42mm

M115 U3.0.12 ; tell printer latest fw version
M83  ; extruder relative mode
G21 ; set units to millimeters
G90 ; use absolute coordinates
M83 ; use relative distances for extrusion
;G1 E-1.40000 F2100.00000
G1 Z0.200 F9000.000
G1 X151.022 Y50.097 F9000.000
;G1 E1.40000 F2100.00000
G1 E4.000 F2100.00000 ; DESRETRACT AQUI
G4 M300
M204 S1000
G1 F1080
G1 X158.813 Y42.307 E0.33141
G1 X159.041 Y41.981 E0.01197
G1 X159.158 Y41.546 E0.01354
G1 X159.119 Y41.098 E0.01354
G1 X158.936 Y40.707 E0.01297
G1 X159.327 Y40.889 E0.01297
G1 X159.776 Y40.928 E0.01354
G1 X160.211 Y40.812 E0.01354
G1 X160.537 Y40.583 E0.01197
G1 X168.323 Y32.797 E0.33121
G1 X168.382 Y33.210 E0.01254
G1 X168.369 Y33.608 E0.01199
G1 X168.295 Y33.970 E0.01111
G1 X168.142 Y34.380 E0.01315
G1 X167.939 Y34.723 E0.01199
G1 X167.663 Y35.049 E0.01283
G1 X163.922 Y38.790 E0.15914
G1 X164.125 Y39.787 E0.03061
G1 X164.176 Y40.452 E0.02004
G1 X164.145 Y41.117 E0.02004
G1 X164.033 Y41.774 E0.02004
G1 X163.841 Y42.412 E0.02004
G1 X163.571 Y43.022 E0.02004
G1 X163.229 Y43.593 E0.02004
G1 X162.820 Y44.119 E0.02004
G1 X162.349 Y44.590 E0.02004
G1 X161.823 Y45.000 E0.02004
G1 X161.251 Y45.342 E0.02004
G1 X160.642 Y45.611 E0.02004
G1 X160.004 Y45.803 E0.02004
G1 X159.347 Y45.915 E0.02004
G1 X158.681 Y45.946 E0.02004
G1 X158.067 Y45.899 E0.01853
G1 X157.017 Y45.695 E0.03217
G1 X153.278 Y49.434 E0.15905
G1 X152.953 Y49.709 E0.01283
G1 X152.607 Y49.914 E0.01209
G1 X152.232 Y50.059 E0.01209
G1 X151.838 Y50.139 E0.01209
G1 X151.436 Y50.153 E0.01209
G1 X151.082 Y50.105 E0.01076
G1 F7200
G1 X154.461 Y46.697 E-1.33000
G1 E-0.07000 F2100.00000
G1 X149.228 Y48.252 F9000.000
G1 E1.40000 F2100.00000
G1 F1080
G1 X149.207 Y48.273 E0.00090
G1 X149.147 Y47.860 E0.01254
G1 X149.161 Y47.462 E0.01199
G1 X149.241 Y47.068 E0.01209
G1 X149.386 Y46.693 E0.01209
G1 X149.591 Y46.347 E0.01209
G1 X149.866 Y46.021 E0.01283
G1 X153.607 Y42.280 E0.15914
G1 X153.405 Y41.283 E0.03061
G1 X153.354 Y40.618 E0.02004
G1 X153.384 Y39.953 E0.02004
G1 X153.497 Y39.296 E0.02004
G1 X153.689 Y38.658 E0.02004
G1 X153.958 Y38.048 E0.02004
G1 X154.300 Y37.477 E0.02004
G1 X154.710 Y36.951 E0.02004
G1 X155.181 Y36.480 E0.02004
G1 X155.706 Y36.070 E0.02004
G1 X156.278 Y35.728 E0.02004
G1 X156.888 Y35.459 E0.02004
G1 X157.526 Y35.267 E0.02004
G1 X158.182 Y35.155 E0.02004
G1 X158.848 Y35.124 E0.02004
G1 X159.512 Y35.175 E0.02004
G1 X160.510 Y35.377 E0.03061
G1 X164.251 Y31.636 E0.15914
G1 X164.577 Y31.361 E0.01283
G1 X164.922 Y31.156 E0.01209
G1 X165.297 Y31.011 E0.01209
G1 X165.691 Y30.931 E0.01209
G1 X166.093 Y30.917 E0.01209
G1 X166.507 Y30.972 E0.01256
G1 X158.716 Y38.763 E0.33141
G1 X158.488 Y39.089 E0.01197
G1 X158.372 Y39.524 E0.01354
G1 X158.411 Y39.972 E0.01354
G1 X158.593 Y40.363 E0.01297
G1 X158.202 Y40.181 E0.01297
G1 X157.754 Y40.142 E0.01354
G1 X157.319 Y40.258 E0.01354
G1 X156.993 Y40.487 E0.01197
G1 X149.270 Y48.209 E0.32851
G1 F7200
G1 X149.207 Y48.273 E-0.02492
G1 F7200
G1 X149.147 Y47.860 E-0.11555
G1 F7200
G1 X149.161 Y47.462 E-0.11046
G1 F7200
G1 X149.241 Y47.068 E-0.11137
G1 F7200
G1 X149.386 Y46.693 E-0.11137
G1 F7200
G1 X149.591 Y46.347 E-0.11137
G1 F7200
G1 X149.866 Y46.021 E-0.11818
G1 F7200
G1 X151.466 Y44.422 E-0.62677
G1 E-0.07000 F2100.00000
G1 X164.332 Y38.913 F9000.000
G1 E1.40000 F2100.00000
G1 F1080
G1 X164.499 Y39.735 E0.02522
G1 X164.554 Y40.446 E0.02144
G1 X164.521 Y41.158 E0.02144
G1 X164.401 Y41.861 E0.02144
G1 X164.195 Y42.543 E0.02144
G1 X163.907 Y43.195 E0.02144
G1 X163.541 Y43.807 E0.02144
G1 X163.103 Y44.369 E0.02144
G1 X162.599 Y44.873 E0.02144
G1 X162.037 Y45.311 E0.02144
G1 X161.425 Y45.677 E0.02144
G1 X160.773 Y45.965 E0.02144
G1 X160.090 Y46.171 E0.02144
G1 X159.388 Y46.291 E0.02144
G1 X158.676 Y46.324 E0.02144
G1 X158.017 Y46.273 E0.01988
G1 X157.142 Y46.103 E0.02679
G1 X153.534 Y49.711 E0.15349
G1 X153.172 Y50.017 E0.01425
G1 X152.772 Y50.254 E0.01399
G1 X152.338 Y50.422 E0.01399
G1 X151.883 Y50.515 E0.01399
G1 X151.418 Y50.531 E0.01399
G1 X150.957 Y50.469 E0.01399
G1 X150.513 Y50.332 E0.01399
G1 X150.341 Y50.246 E0.00578
G1 X158.523 Y42.063 E0.34806
G1 X158.694 Y41.819 E0.00898
G1 X158.776 Y41.513 E0.00954
G1 X158.749 Y41.197 E0.00954
G1 X158.615 Y40.909 E0.00954
G1 X158.390 Y40.685 E0.00954
G1 X158.103 Y40.551 E0.00954
G1 X157.787 Y40.523 E0.00954
G1 X157.481 Y40.605 E0.00954
G1 X157.236 Y40.777 E0.00898
G1 X149.054 Y48.959 E0.34806
G1 X148.968 Y48.787 E0.00578
G1 X148.841 Y48.376 E0.01295
G1 X148.769 Y47.881 E0.01505
G1 X148.785 Y47.417 E0.01395
G1 X148.878 Y46.961 E0.01399
G1 X149.045 Y46.528 E0.01399
G1 X149.282 Y46.128 E0.01399
G1 X149.588 Y45.766 E0.01425
G1 X153.197 Y42.157 E0.15353
G1 X153.031 Y41.335 E0.02522
G1 X152.976 Y40.624 E0.02144
G1 X153.009 Y39.912 E0.02144
G1 X153.129 Y39.209 E0.02144
G1 X153.334 Y38.527 E0.02144
G1 X153.622 Y37.875 E0.02144
G1 X153.988 Y37.263 E0.02144
G1 X154.427 Y36.701 E0.02144
G1 X154.931 Y36.197 E0.02144
G1 X155.493 Y35.759 E0.02144
G1 X156.105 Y35.393 E0.02144
G1 X156.757 Y35.105 E0.02144
G1 X157.439 Y34.899 E0.02144
G1 X158.142 Y34.779 E0.02144
G1 X158.854 Y34.746 E0.02144
G1 X159.565 Y34.801 E0.02144
G1 X160.386 Y34.968 E0.02522
G1 X163.995 Y31.359 E0.15353
G1 X164.357 Y31.053 E0.01425
G1 X164.757 Y30.816 E0.01399
G1 X165.191 Y30.648 E0.01399
G1 X165.647 Y30.555 E0.01399
G1 X166.112 Y30.539 E0.01399
G1 X166.538 Y30.596 E0.01295
G1 X167.018 Y30.739 E0.01505
G1 X167.188 Y30.824 E0.00574
G1 X159.006 Y39.006 E0.34806
G1 X158.835 Y39.251 E0.00898
G1 X158.753 Y39.557 E0.00954
G1 X158.781 Y39.873 E0.00954
G1 X158.915 Y40.161 E0.00954
G1 X159.139 Y40.385 E0.00954
G1 X159.426 Y40.519 E0.00954
G1 X159.742 Y40.547 E0.00954
G1 X160.049 Y40.465 E0.00954
G1 X160.293 Y40.293 E0.00898
G1 X168.475 Y32.111 E0.34806
G1 X168.562 Y32.283 E0.00578
G1 X168.689 Y32.694 E0.01295
G1 X168.760 Y33.189 E0.01505
G1 X168.744 Y33.653 E0.01395
G1 X168.658 Y34.075 E0.01295
G1 X168.484 Y34.543 E0.01505
G1 X168.247 Y34.942 E0.01395
G1 X167.941 Y35.304 E0.01425
G1 X164.374 Y38.871 E0.15172
G1 X163.963 Y39.068 F9000.000
G1 F7200
G1 X164.499 Y39.735 E-0.24193
G1 F7200
G1 X164.554 Y40.446 E-0.19751
G1 F7200
G1 X164.521 Y41.158 E-0.19751
G1 F7200
G1 X164.401 Y41.861 E-0.19751
G1 F7200
G1 X164.195 Y42.543 E-0.19751
G1 F7200
G1 X163.907 Y43.195 E-0.19751
G1 F7200
G1 X163.721 Y43.506 E-0.10051
G1 E-0.07000 F2100.00000
G1 X158.931 Y40.473 F9000.000
G1 E1.40000 F2100.00000
G1 F1080
G1 X158.870 Y40.430 E0.00006
G1 X158.827 Y40.369 E0.00006
G1 X158.599 Y40.597 F9000.000
G1 F1080
G1 X158.660 Y40.640 E0.00006
G1 X158.703 Y40.701 E0.00006
G1 F7200
G1 X158.660 Y40.640 E-0.02073
G1 F7200
G1 X158.599 Y40.597 E-0.02074
G1 E-1.35853 F2100.00000
G1 X149.620 Y47.699 F9000.000
G1 E1.40000 F2100.00000
G1 F1080
G1 X149.442 Y47.520 E0.00762
G1 X149.538 Y47.082 E0.01353
G1 X149.768 Y47.312 E0.00978
G1 X150.035 Y47.044 E0.01140
G1 X149.703 Y46.712 E0.01417
G1 X149.822 Y46.511 E0.00704
G1 X149.920 Y46.395 E0.00460
G1 X150.302 Y46.777 E0.01630
G1 X150.570 Y46.510 E0.01140
G1 X150.174 Y46.114 E0.01690
G1 X150.441 Y45.846 E0.01140
G1 X150.837 Y46.242 E0.01690
G1 X151.105 Y45.975 E0.01140
G1 X150.708 Y45.579 E0.01690
G1 X150.976 Y45.312 E0.01140
G1 X151.372 Y45.708 E0.01690
G1 X151.639 Y45.440 E0.01140
G1 X151.243 Y45.044 E0.01690
G1 X151.510 Y44.777 E0.01140
G1 X151.907 Y45.173 E0.01690
G1 X152.174 Y44.906 E0.01140
G1 X151.778 Y44.509 E0.01690
G1 X152.045 Y44.242 E0.01140
G1 X152.441 Y44.638 E0.01690
G1 X152.709 Y44.371 E0.01140
G1 X152.312 Y43.975 E0.01690
G1 X152.580 Y43.707 E0.01140
G1 X152.976 Y44.104 E0.01690
G1 X153.243 Y43.836 E0.01140
G1 X152.847 Y43.440 E0.01690
G1 X153.115 Y43.173 E0.01140
G1 X153.511 Y43.569 E0.01690
G1 X153.778 Y43.302 E0.01140
G1 X153.382 Y42.905 E0.01690
G1 X153.649 Y42.638 E0.01140
G1 X154.045 Y43.034 E0.01690
G1 X154.313 Y42.767 E0.01140
G1 X153.913 Y42.368 E0.01703
G1 X153.777 Y41.697 E0.02065
G1 X154.580 Y42.499 E0.03424
G1 X154.847 Y42.232 E0.01140
G1 X153.671 Y41.056 E0.05019
G1 X153.642 Y40.492 E0.01701
G1 X155.115 Y41.965 E0.06281
G1 X155.382 Y41.697 E0.01140
G1 X153.666 Y39.982 E0.07320
G1 X153.744 Y39.525 E0.01397
G1 X155.649 Y41.430 E0.08127
G1 X155.917 Y41.163 E0.01140
G1 X153.852 Y39.098 E0.08809
G1 X153.982 Y38.693 E0.01281
G1 X156.184 Y40.895 E0.09393
G1 X156.452 Y40.628 E0.01140
G1 X154.146 Y38.323 E0.09835
G1 X154.332 Y37.974 E0.01192
G1 X156.719 Y40.361 E0.10182
G1 X156.810 Y40.269 E0.00390
G1 X157.017 Y40.124 E0.00762
G1 X154.532 Y37.639 E0.10601
G1 X154.766 Y37.339 E0.01149
G1 X157.377 Y39.950 E0.11139
G1 X157.729 Y39.856 E0.01097
G1 X157.827 Y39.864 E0.00297
G1 X155.012 Y37.049 E0.12009
G1 X155.279 Y36.782 E0.01140
G1 X158.094 Y39.597 E0.12009
G1 X158.085 Y39.499 E0.00297
G1 X158.180 Y39.148 E0.01097
G1 X155.568 Y36.536 E0.11140
G1 X155.869 Y36.302 E0.01149
G1 X158.354 Y38.788 E0.10601
G1 X158.499 Y38.581 E0.00762
G1 X158.590 Y38.489 E0.00390
G1 X156.204 Y36.102 E0.10182
G1 X156.552 Y35.916 E0.01192
G1 X158.858 Y38.222 E0.09835
G1 X159.125 Y37.955 E0.01140
G1 X156.923 Y35.753 E0.09393
G1 X157.327 Y35.622 E0.01281
G1 X159.392 Y37.687 E0.08809
G1 X159.660 Y37.420 E0.01140
G1 X157.755 Y35.515 E0.08127
G1 X158.211 Y35.437 E0.01397
G1 X159.927 Y37.152 E0.07320
G1 X160.194 Y36.885 E0.01140
G1 X158.722 Y35.413 E0.06281
G1 X159.285 Y35.441 E0.01701
G1 X160.462 Y36.618 E0.05019
G1 X160.729 Y36.350 E0.01140
G1 X159.926 Y35.548 E0.03424
G1 X160.597 Y35.684 E0.02065
G1 X160.997 Y36.083 E0.01703
G1 X161.264 Y35.816 E0.01140
G1 X160.868 Y35.420 E0.01690
G1 X161.135 Y35.152 E0.01140
G1 X161.531 Y35.548 E0.01690
G1 X161.799 Y35.281 E0.01140
G1 X161.402 Y34.885 E0.01690
G1 X161.670 Y34.617 E0.01140
G1 X162.066 Y35.014 E0.01690
G1 X162.333 Y34.746 E0.01140
G1 X161.937 Y34.350 E0.01690
G1 X162.204 Y34.083 E0.01140
G1 X162.601 Y34.479 E0.01690
G1 X162.868 Y34.212 E0.01140
G1 X162.472 Y33.815 E0.01690
G1 X162.739 Y33.548 E0.01140
G1 X163.135 Y33.944 E0.01690
G1 X163.403 Y33.677 E0.01140
G1 X163.006 Y33.281 E0.01690
G1 X163.274 Y33.013 E0.01140
G1 X163.670 Y33.410 E0.01690
G1 X163.937 Y33.142 E0.01140
G1 X163.541 Y32.746 E0.01690
G1 X163.809 Y32.479 E0.01140
G1 X164.205 Y32.875 E0.01690
G1 X164.472 Y32.607 E0.01140
G1 X164.076 Y32.211 E0.01690
G1 X164.343 Y31.944 E0.01140
G1 X164.739 Y32.340 E0.01690
G1 X165.007 Y32.073 E0.01140
G1 X164.625 Y31.691 E0.01630
G1 X164.741 Y31.592 E0.00460
G1 X164.942 Y31.473 E0.00704
G1 X165.274 Y31.805 E0.01417
G1 X165.541 Y31.538 E0.01140
G1 X165.312 Y31.309 E0.00978
G1 X165.750 Y31.212 E0.01353
G1 X165.929 Y31.391 E0.00763
G1 F7200
G1 X165.750 Y31.212 E-0.07004
G1 F7200
G1 X165.312 Y31.309 E-0.12426
G1 F7200
G1 X165.541 Y31.538 E-0.08986
G1 F7200
G1 X165.274 Y31.805 E-0.10476
G1 F7200
G1 X164.942 Y31.473 E-0.13019
G1 F7200
G1 X164.741 Y31.592 E-0.06464
G1 F7200
G1 X164.625 Y31.691 E-0.04228
G1 F7200
G1 X165.007 Y32.073 E-0.14973
G1 F7200
G1 X164.739 Y32.340 E-0.10476
G1 F7200
G1 X164.343 Y31.944 E-0.15524
G1 F7200
G1 X164.076 Y32.211 E-0.10476
G1 F7200
G1 X164.472 Y32.607 E-0.15524
G1 F7200
G1 X164.385 Y32.695 E-0.03422
G1 E-0.07000 F2100.00000
G1 X168.235 Y33.697 F9000.000
G1 E1.40000 F2100.00000
G1 F1080
G1 X168.029 Y33.491 E0.00880
G1 X167.762 Y33.758 E0.01140
G1 X167.988 Y33.984 E0.00965
G1 X167.886 Y34.258 E0.00880
G1 X167.826 Y34.358 E0.00351
G1 X167.494 Y34.026 E0.01417
G1 X167.227 Y34.293 E0.01140
G1 X167.609 Y34.675 E0.01630
G1 X167.356 Y34.956 E0.01142
G1 X166.960 Y34.560 E0.01690
G1 X166.692 Y34.828 E0.01140
G1 X167.088 Y35.224 E0.01690
G1 X166.821 Y35.491 E0.01140
G1 X166.425 Y35.095 E0.01690
G1 X166.158 Y35.362 E0.01140
G1 X166.554 Y35.758 E0.01690
G1 X166.286 Y36.026 E0.01140
G1 X165.890 Y35.630 E0.01690
G1 X165.623 Y35.897 E0.01140
G1 X166.019 Y36.293 E0.01690
G1 X165.752 Y36.561 E0.01140
G1 X165.355 Y36.164 E0.01690
G1 X165.088 Y36.432 E0.01140
G1 X165.484 Y36.828 E0.01690
G1 X165.217 Y37.095 E0.01140
G1 X164.821 Y36.699 E0.01690
G1 X164.553 Y36.966 E0.01140
G1 X164.950 Y37.363 E0.01690
G1 X164.682 Y37.630 E0.01140
G1 X164.286 Y37.234 E0.01690
G1 X164.019 Y37.501 E0.01140
G1 X164.415 Y37.897 E0.01690
G1 X164.148 Y38.165 E0.01140
G1 X163.751 Y37.768 E0.01690
G1 X163.484 Y38.036 E0.01140
G1 X163.880 Y38.432 E0.01690
G1 X163.616 Y38.702 E0.01141
G1 X163.217 Y38.303 E0.01703
G1 X162.949 Y38.571 E0.01140
G1 X163.752 Y39.373 E0.03424
G1 X163.844 Y39.826 E0.01395
G1 X163.859 Y40.014 E0.00569
G1 X162.682 Y38.838 E0.05019
G1 X162.415 Y39.105 E0.01140
G1 X163.887 Y40.578 E0.06281
G1 X163.863 Y41.088 E0.01543
G1 X162.147 Y39.373 E0.07320
G1 X161.880 Y39.640 E0.01140
G1 X163.785 Y41.545 E0.08127
G1 X163.757 Y41.709 E0.00502
G1 X163.678 Y41.972 E0.00829
G1 X161.613 Y39.907 E0.08809
G1 X161.345 Y40.175 E0.01140
G1 X163.547 Y42.377 E0.09393
G1 X163.383 Y42.747 E0.01223
G1 X161.078 Y40.442 E0.09835
G1 X160.810 Y40.709 E0.01140
G1 X163.197 Y43.096 E0.10182
G1 X162.997 Y43.431 E0.01176
G1 X160.512 Y40.946 E0.10601
G1 X160.332 Y41.072 E0.00664
G1 X160.152 Y41.120 E0.00562
G1 X162.763 Y43.731 E0.11140
G1 X162.607 Y43.931 E0.00764
G1 X162.518 Y44.021 E0.00382
G1 X159.703 Y41.206 E0.12009
G1 X159.410 Y41.180 E0.00887
G1 X159.435 Y41.473 E0.00887
G1 X162.251 Y44.288 E0.12009
G1 X161.961 Y44.534 E0.01144
G1 X159.350 Y41.922 E0.11139
G1 X159.302 Y42.102 E0.00562
G1 X159.175 Y42.282 E0.00664
G1 X161.660 Y44.768 E0.10601
G1 X161.326 Y44.968 E0.01176
G1 X158.939 Y42.581 E0.10182
G1 X158.672 Y42.848 E0.01140
G1 X160.977 Y45.154 E0.09835
G1 X160.606 Y45.317 E0.01223
G1 X158.404 Y43.115 E0.09393
G1 X158.137 Y43.383 E0.01140
G1 X160.202 Y45.448 E0.08809
G1 X159.939 Y45.527 E0.00829
G1 X159.775 Y45.555 E0.00502
G1 X157.870 Y43.650 E0.08127
G1 X157.602 Y43.918 E0.01140
G1 X159.318 Y45.633 E0.07320
G1 X158.807 Y45.657 E0.01543
G1 X157.335 Y44.185 E0.06281
G1 X157.068 Y44.452 E0.01140
G1 X158.244 Y45.629 E0.05019
G1 X158.105 Y45.618 E0.00420
G1 X157.601 Y45.520 E0.01551
G1 X156.800 Y44.720 E0.03414
G1 X156.533 Y44.987 E0.01140
G1 X156.937 Y45.391 E0.01723
G1 X156.662 Y45.650 E0.01141
G1 X156.266 Y45.254 E0.01690
G1 X155.998 Y45.522 E0.01140
G1 X156.394 Y45.918 E0.01690
G1 X156.127 Y46.185 E0.01140
G1 X155.731 Y45.789 E0.01690
G1 X155.463 Y46.056 E0.01140
G1 X155.860 Y46.453 E0.01690
G1 X155.592 Y46.720 E0.01140
G1 X155.196 Y46.324 E0.01690
G1 X154.929 Y46.591 E0.01140
G1 X155.325 Y46.987 E0.01690
G1 X155.058 Y47.255 E0.01140
G1 X154.661 Y46.858 E0.01690
G1 X154.394 Y47.126 E0.01140
G1 X154.790 Y47.522 E0.01690
G1 X154.523 Y47.789 E0.01140
G1 X154.127 Y47.393 E0.01690
G1 X153.859 Y47.660 E0.01140
G1 X154.256 Y48.057 E0.01690
G1 X153.988 Y48.324 E0.01140
G1 X153.592 Y47.928 E0.01690
G1 X153.325 Y48.195 E0.01140
G1 X153.721 Y48.591 E0.01690
G1 X153.453 Y48.859 E0.01140
G1 X153.057 Y48.463 E0.01690
G1 X152.790 Y48.730 E0.01140
G1 X153.186 Y49.126 E0.01690
G1 X152.905 Y49.379 E0.01142
G1 X152.523 Y48.997 E0.01630
G1 X152.255 Y49.265 E0.01140
G1 X152.587 Y49.597 E0.01417
G1 X152.483 Y49.659 E0.00366
G1 X152.217 Y49.761 E0.00860
G1 X151.988 Y49.532 E0.00978
G1 X151.721 Y49.799 E0.01140
G1 X151.927 Y50.005 E0.00879
M106 S255
G1 F7200
G1 X151.721 Y49.799 E-0.08078
G1 F7200
G1 X151.988 Y49.532 E-0.10476
G1 F7200
G1 X152.217 Y49.761 E-0.08985
G1 F7200
G1 X152.483 Y49.659 E-0.07898
G1 F7200
G1 X152.587 Y49.597 E-0.03360
G1 F7200
G1 X152.255 Y49.265 E-0.13018
G1 F7200
G1 X152.523 Y48.997 E-0.10476
G1 F7200
G1 X152.905 Y49.379 E-0.14973
G1 F7200
G1 X153.186 Y49.126 E-0.10491
G1 F7200
G1 X152.790 Y48.730 E-0.15524
G1 F7200
G1 X153.057 Y48.463 E-0.10476
G1 F7200
G1 X153.453 Y48.859 E-0.15524
G1 F7200
G1 X153.548 Y48.764 E-0.03721
G1 E-0.07000 F2100.00000
G1 Z0.500 F9000.000
G1 X152.497 Y48.217 F9000.000
G1 E1.40000 F2100.00000
M204 S800
G1 F4800
G1 X151.083 Y46.803 E0.12788
G1 X157.178 Y40.707 E0.55117
G1 X157.442 Y40.523 E0.02060
G1 X157.779 Y40.432 E0.02231
G1 X158.127 Y40.463 E0.02231
G1 X158.443 Y40.610 E0.02231
